!!!COM: Bach, Johann Sebastian
!!!OTL: 276. Lobt Gott, ihr Christen, allzugleich
!!!ONM: No. 276
!!!OCL: Erk
!!!SCA: BWV 375
!!!YOE: Riemenschneider, Albert
!!!OPR: 371 Harmonized Chorales and 69 Chorale Melodies with Figured Bass
!!!OPT: Bach Chorale Harmonizations
**harm	**root	**kern	**kern	**kern	**kern
!	!	!bass	!tenor	!alto	!sprno
*Iorgan	*Iorgan	*Iorgan	*Iorgan	*Iorgan	*Iorgan
*k[f#c#g#d#]	*k[f#c#g#d#]	*k[f#c#g#d#]	*k[f#c#g#d#]	*k[f#c#g#d#]	*k[f#c#g#d#]
*E:	*E:	*E:	*E:	*E:	*E:
*met(c)	*met(c)	*met(c)	*met(c)	*met(c)	*met(c)
*M4/4	*M4/4	*M4/4	*M4/4	*M4/4	*M4/4
*MM60	*MM60	*MM60	*MM60	*MM60	*MM60
I	4GG	4E	4G#	4B	4e
=1	=1	=1	=1	=1	=1
Vb	4DD	4D#	4F#	8B	4b
.	.	.	.	8c#	.
V	4DD	4BB	8F#	4d#	4b
.	.	.	16G#	.	.
.	.	.	16A	.	.
I	4GG	8E	8G#	4e	4b
.	.	8F#	8F#	.	.
I	4GG	8G#	4E	8e	4b
.	.	8E	.	8d	.
=2	=2	=2	=2	=2	=2
IV	4CC	4A	4E	8c#	4cc#
.	.	.	.	8e	.
V	4DD	4B	4B	4d#y	8b
.	.	.	.	.	8a
I;	4GG;	4E;	4B;	4e;	4g#;
Vb	4DD	4D#	4B	4f#	4f#
=3	=3	=3	=3	=3	=3
vi	4EE	4C#	4E	4e	8g#
.	.	.	.	.	8a#
iii	4BB	8G#	8B	4d#	4b
.	.	8F#	8A#	.	.
vi7b	4EE	4E	8G#	4c#	4b
.	.	.	8c#	.	.
V/V	4AA	4F#	8f#	4c#	4a#
.	.	.	8e	.	.
=4	=4	=4	=4	=4	=4
V;	2.DD;	2.BB;	2.d#;	2.B;	2.b;
V	4DD	4BB	8B	4d#	4b
.	.	.	8A	.	.
=5	=5	=5	=5	=5	=5
I	4GG	8E	8G#	4e	4b
.	.	8F#	8A	.	.
iii	4BB	8G#	8B	4d#	4b
.	.	8F#	8A	.	.
I	2GG	4.E	8G#	8e	8b
.	.	.	8A	8f#	8a
.	.	.	4B	8g#	8g#
.	.	8F#	.	8f#	8a
=6	=6	=6	=6	=6	=6
!!linebreak: 2
Ib	4GG	4G#	4B	4e	8b
.	.	.	.	.	8a
IV7	4CC	4A	4c#	8e	4g#
.	.	.	.	16d#	.
.	.	.	.	16c#	.
V;	4DD;	4B;	4F#;	4d#;	4f#;
iii	4BB	4G#	8G#	4d#	4b
.	.	.	8F#	.	.
=7	=7	=7	=7	=7	=7
IVb	4CC	[4C#	8E	4e	4a
.	.	.	8F#	.	.
vi	8EE	8C#]	8G#	8e	4g#
iiib	8BB	8BB	8B	8d#	.
iib	4AA	8AA	4c#	4c#	4f#
.	.	8FF#	.	.	.
V	4DD	8BB	4B	4d#	4f#
.	.	8A	.	.	.
=8	=8	=8	=8	=8	=8
Ib	4GG	4G#	4B	4e	8e
.	.	.	.	.	8f#
viib	4FF#	4F#	4A	4d#	8g#
.	.	.	.	.	8a
viioD7/ii;	4GG#;	4E#;	4G#;	4d;	4b;
V7b/ii	4EE	4EE#y	4G#	4c#	4b
=9	=9	=9	=9	=9	=9
ii	4AA	4FF#	8A	8c#	4a
.	.	.	8B	8d#y	.
vi	4EE	8C#	4c#	8e	4g#
.	.	8BB	.	8d#	.
iib	4AA	8AA	8c#	4c#	4f#
.	.	8FF#	8A	.	.
V	4DD	4BB	8F#	4d#	4f#
.	.	.	16G#	.	.
.	.	.	16A	.	.
=10	=10	=10	=10	=10	=10
I;	2.GG;	2.EE;	2.G#;	2.B;	2.e;
==	==	==	==	==	==
*-	*-	*-	*-	*-	*-
!!!CDT: 1685/3//-1750/7/28
!!!OCY: Deutschland
!!!AGN: chorale
!!!AST: Baroque
!!!AIN: vox
!!!YOY: 1941
!!!PPP: New York; London
!!!PPR: G. Schirmer
!!!ENC: David Huron
!!!EED: David Huron
!!!YEN: United States of America
!!!YER: 1992
!!!YEC: Copyright 1992 David Huron
!!!YEM: Rights to all derivative electronic formats reserved.
!!!YER: March 20, 1996
!!!AMT: simple quadruple
!!!EEV: 1.1
!!chor2scor: -l 2 -s 0.6 -o %b.pmx
